X:13
T:GB/7c/13 An Old Man He Courted Me 
%%VWML:GB-7c-13-0
F:http://www.vwml.org/record/GB/7c/13
C:Transcribed by Simon Furey and Lewis Jones
L:1/4
M:3/4
I:linebreak $
K:Cmix
C | C D E | F G A | G2 D | F/E/ C3/2 C/ | C D E | F G A | B G c | G2 G |$ c G G | B c !fermata!d | c A F | G E/D/ !fermata!C | G A B | A B A | G F D | C3 |]

